X: 23
T: Maurice O'Connor. Second Air
C:Turlough Carolan
B:Carolan by Donal O'Sullivan, no. 116
S:Deirdre Sullivan & Paul de Grae <sullgrae:IOL.IE>
N:Maurice O'Connor was the head, in Carolan's day, of
N:the O'Connor's of Offaly [D. O'S]
N:Andante grazioso
M:6/8
L:1/8
K:F
f2 c fga|gf/e/d/c/ f2 c|d/e/fd {d}cAF|EGG B2 c|
AGA FAf|{f}e2 f gab|c'a/b/c'/a/ bg/a/b/g/|e3 c3||
fFf fAf|{f}e2 d c2 B|Aca Aca|b2 a g2 c|
c'a/b/c'/a/ bgb/g/|fa/b/c'/a/ gec|dba gf/e/d/c/|f3 f3||

%%sep 1 1 500

